X:1
T:Hungarian Dance No.4
T:Johannes Brahms
%%score 1 2
L:1/8
Q:1/4=102
M:4/4
K:C
V:1 alto nm="Viola" snm="Vla."
V:2 alto nm="Viola" snm="Vla."
V:1
"^Andante"!mf! (vE2 F2 E2) c2 | z8 | (E2 F2 E2) D2 | z8 | (D2 E2 D2) B2 | z8 | (D2 E2 D2) C2 | z8 | %8
 (c2 B2 A2) e2 | z8 | (c2 B2 A2) f2 | z8 | (f2 e2 d2) c2 | z2 e2 z2 B2 | z2 e2 z2 A2 | z8 || %16
 z2[Q:1/4=132]"^Allegro" A2 _B2 A2 | c4 E4 | z2 E2 F2 E2 | D4 F4- | F2 D2 E2 F2 | B4 F4 | %22
 z2 D2 E2 D2 | C4 C4 | z2 c2 B2 A2 | e4 E4 | z2 c2 B2 A2 | f4 F4- | F2 f2 e2 d2 | c4 e4 | B4 e4 | %31
 A4 C4 ||[Q:1/4=170]"^Vivace" z2 vA2 _B2 A2 | c2 C2 z2 C2 | z2 E2 F2 E2 | D2 F4 F2- | F2 F2 E2 F2 | %37
 B2 D2 z2 D2 | z2 D2 E2 D2 | C2 C2 z2 C2 | z2 c2 B2 A2 | e2 C2 z2 C2 | z2 c2 B2 A2 | f2 F4 F2- | %44
 F2 f2 e2 d2 | c2 z2 e2 z2 | B2 z2 e2 z2 | A2 C2 z2 C2 ||[Q:1/4=132]"^Allegro"!<(! G4 F2 G2!<)! | %49
!f! A4 B4 | c2 c2 E2 (Bc) | (dcBc) (dcBc) | a4 E2 g2 | f4 e4 | d2 d2 F2 ((^cd)) | (ed^cd) (edcd) | %56
 g4 F2 d2 | g4 f4 | e2 e2 F2 (^de) | (fe^de) (fede) | f4 F2 d2 | c4 B4 | A2 A2 F2 (^GA) | %63
 (BA^GA) (BAGA) | G4 F2 G2 | A4 B4 | c2 c2 F2 (Bc) | (dcBc) (dcBc) | a4 E2 g2 | f4 e4 | %70
 d2 d2 F2 (^cd) | (ed^cd) (edcd) | g4 F2 d2 | g4 f4 | e2 e2 E2 (^de) | (fe^de) (fede) | f4 F2 d2 | %77
 c4 B4 | A2 A2 E2 (^GA) | (BA^GA) (BAGA) | (BA^GB) A4- | A2 z2 z4 |] %82
V:2
!mp! z8 | (vE2 ^D2 E2) A,2 | z8 | (F2 E2 F2) B,2 | z8 | (D2 C2 D2) ^G,2 | z8 | (E2 ^D2 E2) A,2 | %8
 z8 | (E2 ^D2 E2) A2 | z8 | (A,2 B,2 C2) D2 | z8 | (E2 ^D2 E2) z2 | (E2 ^D2 E2) z2 | %15
 (E2 ^D2 E2) A,2 || z2!mf! A2 _B2 A2 | c4 C4 | z2 E2 C2 E2 | D4 D4- | D2 D2 D2 F2 | B4 D4 | %22
 z2 D2 D2 D2 | C4 C4 | z2 c2 B2 A2 | e4 C4 | z2 c2 B2 A2 | f4 D4- | D2 f2 e2 d2 | c4 C4 | B4 D4 | %31
 A4 C4 || z2 vA2 _B2 A2 | c2 C2 z2 C2 | z2 E2 F2 E2 | D2 D4 D2- | D2 D2 E2 D2 | B2 D2 z2 D2 | %38
 z2 D2 D2 D2 | C2 C2 z2 C2 | z2 C2 z2 C2 | z2 C2 z2 C2 | z2 C2 z2 C2 | z2 D4 D2- | D2 D2 z2 F2 | %45
 z2 C2 z2 C2 | z2 D2 z2 D2 | z2 C2 z2 C2 ||!<(! G4 F2 G2!<)! |!f! A4 B4 | c2 c2 C2 (Bc) | %51
 (dcBc) (dcBc) | a4 ^C2 g2 | f4 e4 | d2 d2 D2 (^cd) | (ed^cd) (edcd) | g4 D2 d2 | g4 f4 | %58
 e2 e2 D2 (^de) | (fe^de) (fede) | f4 D2 d2 | c4 B4 | A2 A2 D2 (^GA) | (BA^GA) (BAGA) | G4 F2 G2 | %65
 A4 B4 | c2 c2 D2 (Bc) | (dcBc) (dcBc) | a4 ^C2 g2 | f4 e4 | d2 d2 D2 (^cd) | (ed^cd) (edcd) | %72
 g4 F2 d2 | g4 f4 | e2 e2 C2 (^de) | (fe^de) (fede) | f4 D2 d2 | c4 B4 | A2 A2 C2 (^GA) | %79
 (BA^GA) (BAGA) | (BA^GB) A4- | A2 z2 z4 |] %82

